X: 1271
T: The Braes of Balqudder.   a Reel.
%R: reel, air
N: This is version 2, for ABC software that understands voice overlays.
N: Actually, the "chord" version for abc1 works just as well.
B: Niel Gow & Sons "Complete Repository" v.1 p.27 #1
Z: 2021 John Chambers <jc:trillian.mit.edu>
M: C|
L: 1/8
Q: "This Tune may be play'd very Slow"
K: F
% - - - - - - - - - -
% Voice 1 formatted for compactness and proofreading.
V: 1 staves=2
c |\
(A/B/c) Fc {B}A2 Ac | (A/B/c) Fc AGGc & x4 FEEx | (A/B/c) Fc {B}A2 Ac | Td>efd cAA !segno!:| c | Td>efd cAag |
fdcA BGGc | Td>efd cATf>g | (a/g/).f/.e/ f>c {B}A2- Ac | ~d>ef.d .c(ag).a | f>dcA A>GGA | F>CA,C TF>GAc |
Td>efd cA"^fine"A |: c | d>Fc>F A3~c | d>Fc>F AGGc & x4 FEEx | (dF)(cF) A2-Ac | ~d>efd cAA !segno!:|
% - - - - - - - - - -
% Voice 2 preserves the book's staff layout.
V: 2 clef=bass middle=d
z |\
f2f2 f2f2 | f2f2 c2e2 | f2f2 f2f2 | b2b2 a2f !segno!:| z | b2b2 a2f2 |
f2a2 c'2c2 | B2B2 A2f2 | f2c2 f2f2 | b2b2 a2f2 | f2f2 c2c2 | A2A2 F2A2 |
B2B2 A2"^fine"F |: z | b2a2 x2a2 & f4 f2f2 | b2a2 x2c2 & f4 c'2x2 | b2a2 x4 & f4 f2f2 | "^End with the 2nd part"x4 a2x & b2b2 f2f !segno!:|
% %text End with the 2nd part


